styles/2/Numix/128/places/orange-folder-ubuntu.svg

<?xml version="1.0" encoding="UTF-8" standalone="no"?>
<svg
   xmlns:dc="http://purl.org/dc/elements/1.1/"
   xmlns:cc="http://creativecommons.org/ns#"
   xmlns:rdf="http://www.w3.org/1999/02/22-rdf-syntax-ns#"
   xmlns:svg="http://www.w3.org/2000/svg"
   xmlns="http://www.w3.org/2000/svg"
   xmlns:sodipodi="http://sodipodi.sourceforge.net/DTD/sodipodi-0.dtd"
   xmlns:inkscape="http://www.inkscape.org/namespaces/inkscape"
   width="128px"
   height="128px"
   viewBox="0 0 128 128"
   version="1.1"
   id="svg3007"
   inkscape:version="0.91 r"
   sodipodi:docname="orange-folder-ubuntu.svg">
  <metadata
     id="metadata3020">
    <rdf:RDF>
      <cc:Work
         rdf:about="">
        <dc:format>image/svg+xml</dc:format>
        <dc:type
           rdf:resource="http://purl.org/dc/dcmitype/StillImage" />
      </cc:Work>
    </rdf:RDF>
  </metadata>
  <defs
     id="defs3018" />
  <sodipodi:namedview
     pagecolor="#ffffff"
     bordercolor="#666666"
     borderopacity="1"
     objecttolerance="10"
     gridtolerance="10"
     guidetolerance="10"
     inkscape:pageopacity="0"
     inkscape:pageshadow="2"
     inkscape:window-width="668"
     inkscape:window-height="480"
     id="namedview3016"
     showgrid="false"
     inkscape:zoom="1.84375"
     inkscape:cx="64"
     inkscape:cy="64"
     inkscape:window-x="0"
     inkscape:window-y="0"
     inkscape:window-maximized="0"
     inkscape:current-layer="svg3007" />
  <path
     inkscape:connector-curvature="0"
     id="path3010"
     d="m 18,16 c -2.929688,0 -6,3.023438 -6,6 l 0,2 -6,0 c -2.941406,0 -6,2.992188 -6,6 l 0,76 c 0,4 2,6 6,6 l 116,0 c 3.13672,0 6,-2.71484 6,-6 l 0,-66 c 0,-3.011719 -2.91016,-6 -6,-6 l -6,0 0,-12 c 0,-2.921875 -2.90625,-6 -6,-6 z m 0,0"
     style="fill:#f57c00;fill-opacity:1;fill-rule:nonzero;stroke:none" />
  <path
     inkscape:connector-curvature="0"
     id="path3012"
     d="m 18,16 c -2.929688,0 -6,3.023438 -6,6 l 0,2 -6,0 c -2.941406,0 -6,2.992188 -6,6 l 0,76 c 0,4 2,6 6,6 l 116,0 c 3.13672,0 6,-2.71484 6,-6 l 0,-66 c 0,-3.011719 -2.91016,-6 -6,-6 l -6,0 0,-12 c 0,-2.921875 -2.90625,-6 -6,-6 z M 6,28 74,28 c 1.179688,0 2,1.03125 2,2 l 0,8 46,0 c 1.01172,0 2,1.015625 2,2 l 0,66 c 0,1.04297 -0.95703,2 -2,2 L 6,108 c -0.929688,0 -2,-0.79297 -2,-2 L 4,30 c 0,-0.984375 1.03125,-2 2,-2 z m 0,0"
     style="fill:#000000;fill-opacity:0.32156899;fill-rule:nonzero;stroke:none" />
  <path
     inkscape:connector-curvature="0"
     id="path3014"
     d="m 86,44 c -3.3125,0 -6,2.6875 -6,6 0,3.3125 2.6875,6 6,6 3.3125,0 6,-2.6875 6,-6 0,-3.3125 -2.6875,-6 -6,-6 z m -22,4 c -4.585938,0 -8.859375,1.265625 -12.5,3.5 l 5.9375,5.9375 C 59.441406,56.535156 61.660156,56 64,56 c 8.15625,0 14.886719,6.109375 15.875,14 l 8,0 C 87.550781,66.160156 86.351562,62.550781 84.4375,59.4375 83.6875,59.777344 82.878906,60 82,60 78.6875,60 76,57.3125 76,54 76,53.121094 76.222656,52.3125 76.5625,51.5625 72.910156,49.3125 68.605469,48 64,48 z M 48.3125,53.9375 C 44.554688,57.214844 41.78125,61.601562 40.625,66.625 42.617188,67.601562 44,69.632812 44,72 c 0,2.367188 -1.382812,4.398438 -3.375,5.375 1.246094,5.414062 4.285156,10.164062 8.5,13.5 l 5.75,-5.75 C 50.722656,82.234375 48,77.441406 48,72 48,66.980469 50.320312,62.496094 53.9375,59.5625 z M 32,66 c -3.3125,0 -6,2.6875 -6,6 0,3.3125 2.6875,6 6,6 3.3125,0 6,-2.6875 6,-6 0,-3.3125 -2.6875,-6 -6,-6 z m 47.875,8 C 78.886719,81.890625 72.15625,88 64,88 62.109375,88 60.308594,87.601562 58.625,87 l -6.0625,6.0625 C 55.964844,94.921875 59.847656,96 64,96 67.027344,96 69.894531,95.460938 72.5625,94.4375 72.222656,93.6875 72,92.878906 72,92 c 0,-3.3125 2.6875,-6 6,-6 1.609375,0 3.046875,0.65625 4.125,1.6875 C 85.367188,83.945312 87.445312,79.226562 87.875,74 z M 82,90 c -3.3125,0 -6,2.6875 -6,6 0,3.3125 2.6875,6 6,6 3.3125,0 6,-2.6875 6,-6 0,-3.3125 -2.6875,-6 -6,-6 z m 0,0"
     style="fill:#000000;fill-opacity:0.32156899;fill-rule:nonzero;stroke:none" />
</svg>

<svg xmlns="http://www.w3.org/2000/svg" viewBox="0 0 128 128">
 <path d="m 18 16 c -2.93 0 -6 3.02 -6 6 l 0 2 -6 0 c -2.941 0 -6 2.992 -6 6 l 0 76 c 0 4 2 6 6 6 l 116 0 c 3.137 0 6 -2.715 6 -6 l 0 -66 c 0 -3.01 -2.91 -6 -6 -6 l -6 0 0 -12 c 0 -2.922 -2.906 -6 -6 -6 z m 0 0" style="fill:#f57c00;fill-opacity:1;stroke:none;fill-rule:nonzero"/>
 <path d="m 18 16 c -2.93 0 -6 3.02 -6 6 l 0 2 -6 0 c -2.941 0 -6 2.992 -6 6 l 0 76 c 0 4 2 6 6 6 l 116 0 c 3.137 0 6 -2.715 6 -6 l 0 -66 c 0 -3.01 -2.91 -6 -6 -6 l -6 0 0 -12 c 0 -2.922 -2.906 -6 -6 -6 z m -12 12 68 0 c 1.18 0 2 1.031 2 2 l 0 8 46 0 c 1.012 0 2 1.016 2 2 l 0 66 c 0 1.043 -0.957 2 -2 2 l -116 0 c -0.93 0 -2 -0.793 -2 -2 l 0 -76 c 0 -0.984 1.031 -2 2 -2 z m 0 0" style="fill:#000;fill-opacity:0.322;stroke:none;fill-rule:nonzero"/>
 <path d="m 86 44 c -3.313 0 -6 2.688 -6 6 0 3.313 2.688 6 6 6 3.313 0 6 -2.688 6 -6 0 -3.313 -2.688 -6 -6 -6 z m -22 4 c -4.586 0 -8.859 1.266 -12.5 3.5 l 5.938 5.938 c 2 -0.902 4.223 -1.438 6.563 -1.438 c 8.156 0 14.887 6.109 15.875 14 l 8 0 c -0.324 -3.84 -1.523 -7.449 -3.438 -10.563 -0.75 0.34 -1.559 0.563 -2.438 0.563 -3.313 0 -6 -2.688 -6 -6 0 -0.879 0.223 -1.688 0.563 -2.438 -3.652 -2.25 -7.957 -3.563 -12.563 -3.563 z m -15.688 5.938 c -3.758 3.277 -6.531 7.664 -7.688 12.688 1.992 0.977 3.375 3.01 3.375 5.375 c 0 2.367 -1.383 4.398 -3.375 5.375 1.246 5.414 4.285 10.164 8.5 13.5 l 5.75 -5.75 c -4.152 -2.891 -6.875 -7.684 -6.875 -13.12 0 -5.02 2.32 -9.504 5.938 -12.438 z m -16.313 12.06 c -3.313 0 -6 2.688 -6 6 0 3.313 2.688 6 6 6 3.313 0 6 -2.688 6 -6 0 -3.313 -2.688 -6 -6 -6 z m 47.875 8 c -0.988 7.891 -7.719 14 -15.875 14 -1.891 0 -3.691 -0.398 -5.375 -1 l -6.06 6.06 c 3.402 1.859 7.285 2.938 11.438 2.938 3.03 0 5.895 -0.539 8.563 -1.563 -0.34 -0.75 -0.563 -1.559 -0.563 -2.438 c 0 -3.313 2.688 -6 6 -6 1.609 0 3.047 0.656 4.125 1.688 c 3.242 -3.742 5.32 -8.461 5.75 -13.688 z m 2.125 16 c -3.313 0 -6 2.688 -6 6 0 3.313 2.688 6 6 6 3.313 0 6 -2.688 6 -6 0 -3.313 -2.688 -6 -6 -6 z m 0 0" style="fill:#000;fill-opacity:0.322;stroke:none;fill-rule:nonzero"/>
</svg>
